src/lib/packages/icons/src/assets/filled/taxi.svg

<svg xmlns="http://www.w3.org/2000/svg" width="24" height="24" fill="none"><path fill="currentColor" d="M9.75 3c0-.41.34-.75.75-.75h3c.41 0 .75.34.75.75s-.34.75-.75.75h-3c-.41 0-.75-.34-.75-.75ZM21 9.75h-1.04l.12.96c.39.15.67.37.84.57.46.51.65 1.24.55 2.03l-.39 3.12c-.14 1.13-.5 2.38-1.83 2.86V21c0 .41-.34.75-.75.75s-.75-.34-.75-.75v-1.5H6.25V21c0 .41-.34.75-.75.75s-.75-.34-.75-.75v-1.71c-1.33-.48-1.69-1.73-1.83-2.86l-.39-3.12c-.1-.79.09-1.52.55-2.03.17-.2.45-.42.84-.57l.12-.96H3c-.41 0-.75-.34-.75-.75s.34-.75.75-.75h1.23l.11-.84c.24-1.49.52-3.16 3.7-3.16h7.92c3.18 0 3.46 1.67 3.7 3.14l.11.86H21c.41 0 .75.34.75.75s-.34.75-.75.75ZM7.25 15a.75.75 0 1 0-1.499 0 .75.75 0 0 0 1.499 0Zm8 0c0-.41-.34-.75-.75-.75h-5c-.41 0-.75.34-.75.75s.34.75.75.75h5c.41 0 .75-.34.75-.75Zm3 0c0-.2-.08-.39-.22-.53a.774.774 0 0 0-1.06 0 .75.75 0 1 0 1.28.53Zm.3-4.5-.37-2.89c-.23-1.39-.31-1.86-2.22-1.86H8.04c-1.91 0-1.99.47-2.22 1.88l-.37 2.87h13.1Z"/></svg>

<svg width="24" height="24" viewBox="0 0 24 24" fill="none" xmlns="http://www.w3.org/2000/svg">
<path d="M9.75 3C9.75 2.59 10.09 2.25 10.5 2.25H13.5C13.91 2.25 14.25 2.59 14.25 3C14.25 3.41 13.91 3.75 13.5 3.75H10.5C10.09 3.75 9.75 3.41 9.75 3ZM21 9.75H19.96L20.08 10.71C20.47 10.86 20.75 11.08 20.92 11.28C21.38 11.79 21.57 12.52 21.47 13.31L21.08 16.43C20.94 17.56 20.58 18.81 19.25 19.29V21C19.25 21.41 18.91 21.75 18.5 21.75C18.09 21.75 17.75 21.41 17.75 21V19.5H6.25V21C6.25 21.41 5.91 21.75 5.5 21.75C5.09 21.75 4.75 21.41 4.75 21V19.29C3.42 18.81 3.06 17.56 2.92 16.43L2.53 13.31C2.43 12.52 2.62 11.79 3.08 11.28C3.25 11.08 3.53 10.86 3.92 10.71L4.04 9.75H3C2.59 9.75 2.25 9.41 2.25 9C2.25 8.59 2.59 8.25 3 8.25H4.23L4.34 7.41C4.58 5.92 4.86 4.25 8.04 4.25H15.96C19.14 4.25 19.42 5.92 19.66 7.39L19.77 8.25H21C21.41 8.25 21.75 8.59 21.75 9C21.75 9.41 21.41 9.75 21 9.75ZM7.25 15C7.25 14.8 7.17 14.61 7.03 14.47C6.96 14.4 6.88 14.34 6.79 14.31C6.6 14.23 6.4 14.23 6.21 14.31C6.12 14.35 6.04 14.4 5.97 14.47C5.9 14.54 5.85 14.62 5.81 14.71C5.77 14.8 5.75 14.9 5.75 15C5.75 15.1 5.77 15.19 5.81 15.29C5.85 15.38 5.9 15.46 5.97 15.53C6.11 15.67 6.3 15.75 6.5 15.75C6.6 15.75 6.7 15.73 6.79 15.69C6.88 15.65 6.96 15.6 7.03 15.53C7.1 15.46 7.15 15.38 7.19 15.29C7.23 15.19 7.25 15.1 7.25 15ZM15.25 15C15.25 14.59 14.91 14.25 14.5 14.25H9.5C9.09 14.25 8.75 14.59 8.75 15C8.75 15.41 9.09 15.75 9.5 15.75H14.5C14.91 15.75 15.25 15.41 15.25 15ZM18.25 15C18.25 14.8 18.17 14.61 18.03 14.47C17.75 14.19 17.25 14.19 16.97 14.47C16.83 14.61 16.75 14.8 16.75 15C16.75 15.1 16.77 15.2 16.81 15.29C16.85 15.38 16.9 15.46 16.97 15.53C17.11 15.67 17.31 15.75 17.5 15.75C17.7 15.75 17.89 15.67 18.03 15.53C18.1 15.46 18.15 15.38 18.19 15.29C18.23 15.2 18.25 15.1 18.25 15ZM18.55 10.5L18.18 7.61C17.95 6.22 17.87 5.75 15.96 5.75H8.04C6.13 5.75 6.05 6.22 5.82 7.63L5.45 10.5H18.55Z" fill="currentColor"/>
</svg>
